X:1
T:Title
%%score { ( 1 3 ) | 2 }
L:1/8
Q:1/4=100
M:4/4
K:D
V:1 treble nm="Grand Piano"
V:3 treble 
V:2 bass 
V:1
 [FA]2 [FA]2 [GB][FA][DF][EG] | [FA]2 [FA]2 [GB][FA][DF][EG] | [FA]2 [Fd]2 [Ec]3 [DFB] | %3
w: William~B.~Bradbury * * * * *|||
 [CEA]2 [B,E^G]2 [CEA]4 | [FA]2 [FA]2 [GB][FA][DF][EG] | [FA]2 [FA]2 [GB][FA][DF][EG] | %6
w: |||
 [FA]2 [Fd]2 [Ec]3 [DFB] | [CEA]2 [B,D^G]2 [CA]4 | [CE]3 [DF] [EG]2 [DF][CE] | %9
w: |||
 [DF]2 [FA]2 [GB]2 [FA]2 | E3 F G2 [DF][CE] | [DF]2 [FA]2 [GB]2 [FA]2 | [Fd]3 [Fd] [Fd]2 [Fd][Gd] | %13
w: ||||
 .[Ad]2 .[FA]2 .[GB]2 .[FA]2 | E3 F G2 [FA]2 | [GB]2 [FA]2 [FA]2 [DF]2 | %16
w: |||
 [Fd]3 [Fd] [Fd]2 [Fd][Gd] | .[Ad]2 .[FA]2 .[GB]2 .[FA]2 | A3 A B2 [Ge]2 | d2 c-[Gc] [Fd]4 |] %20
w: ||||
V:2
 [D,D]2 [D,D]2 [D,D]2 [D,A,]2 | [D,D]2 [D,D]2 [D,D]2 [D,A,]2 | [D,D]2 [D,A,]2 A,3 D, | %3
 E,2 E,2 A,,4 | [D,D]2 [D,D]2 [D,D]2 [D,A,]2 | [D,D]2 [D,D]2 [D,D]2 [D,A,]2 | %6
 [D,D]2 [D,A,]2 A,3 D, | E,2 E,2 [A,,A,]4 | [A,,A,]3 [A,,A,] [A,,A,]2 [A,,A,]2 | %9
 [D,A,]2 [D,D]2 [D,D]2 [D,D]2 | [A,C]3 [A,D] [A,E]2 [A,,A,]2 | [D,A,]2 [D,D]2 [D,D]2 [D,D]2 | %12
 [D,A,]3 [D,A,] [D,A,]2 [D,A,][E,A,] | .[F,A,]2 .[D,D]2 .[G,D]2 .[D,D]2 | %14
 [A,C]3 [A,D] [A,E]2 [A,,A,]2 | [A,,A,]2 [A,,A,]2 [D,A,]4 | [D,A,]3 [D,A,] [D,A,]2 [D,A,][E,A,] | %17
 .[F,A,]2 .[D,D]2 .[G,D]2 .[D,D]2 | [F,A,D]3 [F,A,D] [G,D]2 [E,B,]2 | [A,F]2 [A,,A,]2 [D,A,]4 |] %20
V:3
 x8 | x8 | x8 | x8 | x8 | x8 | x8 | x8 | x8 | x8 | x8 | x8 | x8 | x8 | x8 | x8 | x8 | x8 | x8 | %19
 z2 .E2 z4 |] %20

